dist/shoppingCart-icon.98b42664.svg

<svg width="32" height="29" viewBox="0 0 32 29" fill="none" xmlns="http://www.w3.org/2000/svg">
<path d="M10.5002 26.6667C11.1445 26.6667 11.6668 26.1444 11.6668 25.5C11.6668 24.8557 11.1445 24.3334 10.5002 24.3334C9.85583 24.3334 9.3335 24.8557 9.3335 25.5C9.3335 26.1444 9.85583 26.6667 10.5002 26.6667Z" stroke="#2C4CBC" stroke-width="2" stroke-linecap="round" stroke-linejoin="round"/>
<path d="M23.3332 26.6667C23.9775 26.6667 24.4998 26.1444 24.4998 25.5C24.4998 24.8557 23.9775 24.3334 23.3332 24.3334C22.6888 24.3334 22.1665 24.8557 22.1665 25.5C22.1665 26.1444 22.6888 26.6667 23.3332 26.6667Z" stroke="#2C4CBC" stroke-width="2" stroke-linecap="round" stroke-linejoin="round"/>
<path d="M1.1665 2.16663H5.83317L8.95984 17.7883C9.06652 18.3254 9.35873 18.8079 9.78531 19.1513C10.2119 19.4947 10.7457 19.6771 11.2932 19.6666H22.6332C23.1807 19.6771 23.7145 19.4947 24.141 19.1513C24.5676 18.8079 24.8598 18.3254 24.9665 17.7883L26.8332 7.99996H6.99984" stroke="#2C4CBC" stroke-width="2" stroke-linecap="round" stroke-linejoin="round"/>
<ellipse cx="24.7308" cy="6.5817" rx="6.49548" ry="6.5048" fill="#2C4CBC"/>
<path d="M26.8208 9H22.4351V8.12988L24.5049 5.92383C24.7891 5.61328 24.9985 5.34229 25.1333 5.11084C25.271 4.87939 25.3398 4.65967 25.3398 4.45166C25.3398 4.16748 25.2681 3.94482 25.1245 3.78369C24.981 3.61963 24.7759 3.5376 24.5093 3.5376C24.2222 3.5376 23.9951 3.63721 23.8281 3.83643C23.6641 4.03271 23.582 4.29199 23.582 4.61426H22.3076C22.3076 4.22461 22.3999 3.86865 22.5845 3.54639C22.772 3.22412 23.0356 2.97217 23.3755 2.79053C23.7153 2.60596 24.1006 2.51367 24.5312 2.51367C25.1904 2.51367 25.7017 2.67188 26.0649 2.98828C26.4312 3.30469 26.6143 3.75146 26.6143 4.32861C26.6143 4.64502 26.5322 4.96729 26.3682 5.29541C26.2041 5.62354 25.9229 6.00586 25.5244 6.44238L24.0698 7.97607H26.8208V9Z" fill="white"/>
</svg>

<svg xmlns="http://www.w3.org/2000/svg" xmlns:xlink="http://www.w3.org/1999/xlink" width="32" height="29" fill="none" xmlns:v="https://vecta.io/nano"><g stroke="#2c4cbc" stroke-width="2" stroke-linejoin="round"><use xlink:href="#B"/><use xlink:href="#B" x="12.833"/><path d="M1.167 2.167h4.667L8.96 17.788c.107.537.399 1.02.825 1.363s.96.526 1.508.515h11.34c.548.011 1.081-.172 1.508-.515s.719-.826.826-1.363L26.833 8H7" stroke-linecap="round"/></g><ellipse cx="24.731" cy="6.582" rx="6.495" ry="6.505" fill="#2c4cbc"/><path d="M26.821 9h-4.386v-.87l2.07-2.206c.284-.311.494-.582.628-.813s.207-.451.207-.659c0-.284-.072-.507-.215-.668s-.349-.246-.615-.246c-.287 0-.514.1-.681.299s-.246.456-.246.778h-1.274a2.11 2.11 0 0 1 .277-1.068c.188-.322.451-.574.791-.756s.725-.277 1.156-.277c.659 0 1.171.158 1.534.475s.549.763.549 1.34c0 .316-.082.639-.246.967s-.445.71-.844 1.147L24.07 7.976h2.751V9z" fill="#fff"/><defs ><path id="B" d="M10.5 26.667c.644 0 1.167-.522 1.167-1.167s-.522-1.167-1.167-1.167-1.167.522-1.167 1.167.522 1.167 1.167 1.167z"/></defs></svg>
